;FLAVOR:Marlin
;TIME:7297
;Filament used: 4.0149m
;Layer height: 0.2
;MINX:86.848
;MINY:72.801
;MINZ:0.2
;MAXX:149.531
;MAXY:171.813
;MAXZ:18
;Generated with Cura_SteamEngine 4.9.0
M140 S50
M105
M190 S50
M104 S200
M105
M109 S200
M82 ;absolute extrusion mode
; Ender 3 Custom Start G-code
G92 E0 ; Reset Extruder
G28 ; Home all axes
G1 Z2.0 F3000 ; Move Z Axis up little to prevent scratching of Heat Bed
G1 X0.1 Y20 Z0.3 F5000.0 ; Move to start position
G1 X0.1 Y200.0 Z0.3 F1500.0 E15 ; Draw the first line
G1 X0.4 Y200.0 Z0.3 F5000.0 ; Move to side a little
G1 X0.4 Y20 Z0.3 F1500.0 E30 ; Draw the second line
G92 E0 ; Reset Extruder
G1 Z2.0 F3000 ; Move Z Axis up little to prevent scratching of Heat Bed
G1 X5 Y20 Z0.3 F5000.0 ; Move over to prevent blob squish
G92 E0
G92 E0
G1 F2700 E-5
;LAYER_COUNT:90
;LAYER:0
M107
G0 F6000 X104.901 Y77.521 Z0.2
;TYPE:SKIRT
G1 F2700 E0
G1 F1200 X105.471 Y76.776 E0.0312
G1 X106.102 Y76.082 E0.0624
G1 X106.79 Y75.444 E0.0936
G1 X107.529 Y74.868 E0.12477
G1 X108.315 Y74.356 E0.15597
G1 X109.142 Y73.913 E0.18717
G1 X110.004 Y73.543 E0.21837
G1 X110.894 Y73.247 E0.24957
G1 X111.805 Y73.028 E0.28073
G1 X112.733 Y72.887 E0.31195
G1 X113.586 Y72.828 E0.34039
G1 X113.918 Y72.818 E0.35144
G1 X114.249 Y72.813 E0.36245
G1 X132.585 Y72.813 E0.9723
G1 X137.79 Y72.801 E1.14542
G1 X138.646 Y72.81 E1.1739
G1 X139.582 Y72.86 E1.20507
G1 X140.511 Y72.99 E1.23627
G1 X141.425 Y73.199 E1.26746
G1 X142.318 Y73.485 E1.29864
G1 X143.184 Y73.846 E1.32985
G1 X144.016 Y74.28 E1.36106
G1 X144.808 Y74.782 E1.39225
G1 X145.554 Y75.351 E1.42345
G1 X146.249 Y75.981 E1.45465
G1 X146.887 Y76.667 E1.48581
G1 X147.465 Y77.406 E1.51702
G1 X147.978 Y78.191 E1.54821
G1 X148.422 Y79.017 E1.5794
G1 X148.795 Y79.878 E1.61061
G1 X149.092 Y80.767 E1.64178
G1 X149.313 Y81.679 E1.67299
G1 X149.455 Y82.606 E1.70418
G1 X149.517 Y83.512 E1.73439
G1 X149.526 Y83.845 E1.74547
G1 X149.53 Y84.142 E1.75535
G1 X149.531 Y121.806 E3.00806
G1 X149.528 Y122.882 E3.04384
G1 X149.53 Y123.109 E3.05139
G1 X149.529 Y160.213 E4.28548
G1 X149.519 Y160.941 E4.30969
G1 X149.466 Y161.877 E4.34087
G1 X149.334 Y162.806 E4.37208
G1 X149.123 Y163.72 E4.40328
G1 X148.835 Y164.612 E4.43446
G1 X148.471 Y165.477 E4.46567
G1 X148.036 Y166.308 E4.49687
G1 X147.531 Y167.098 E4.52806
G1 X146.961 Y167.843 E4.55925
G1 X146.33 Y168.536 E4.59043
G1 X145.642 Y169.173 E4.62161
G1 X144.902 Y169.75 E4.65282
G1 X144.115 Y170.261 E4.68403
G1 X143.288 Y170.703 E4.71522
G1 X142.426 Y171.073 E4.74642
G1 X141.536 Y171.368 E4.77761
G1 X140.624 Y171.587 E4.8088
G1 X139.697 Y171.727 E4.83998
G1 X138.829 Y171.786 E4.86892
G1 X138.509 Y171.795 E4.87957
G1 X138.2 Y171.799 E4.88984
G1 X134.256 Y171.799 E5.02102
G1 X133.492 Y171.811 E5.04644
G1 X133.301 Y171.806 E5.05279
G1 X132.297 Y171.813 E5.08619
G1 X98.397 Y171.812 E6.2137
G1 X97.699 Y171.802 E6.23692
G1 X96.763 Y171.748 E6.26811
G1 X95.835 Y171.616 E6.29928
G1 X94.921 Y171.404 E6.33049
G1 X94.029 Y171.115 E6.36167
G1 X93.164 Y170.752 E6.39287
G1 X92.334 Y170.316 E6.42406
G1 X91.543 Y169.811 E6.45527
G1 X90.799 Y169.24 E6.48646
G1 X90.106 Y168.608 E6.51766
G1 X89.469 Y167.92 E6.54884
G1 X88.894 Y167.179 E6.58004
G1 X88.383 Y166.393 E6.61122
G1 X87.941 Y165.565 E6.64244
G1 X87.572 Y164.703 E6.67363
G1 X87.277 Y163.813 E6.70481
G1 X87.059 Y162.901 E6.736
G1 X86.919 Y161.973 E6.76721
G1 X86.86 Y161.07 E6.79731
G1 X86.851 Y160.7 E6.80962
G1 X86.848 Y160.429 E6.81864
G1 X86.85 Y157.329 E6.92174
G1 X86.86 Y156.652 E6.94426
G1 X86.914 Y155.715 E6.97548
G1 X86.992 Y155.11 E6.99577
G1 X87.144 Y154.147 E7.02819
G1 X87.314 Y153.163 E7.06141
G1 X87.668 Y150.691 E7.14446
G1 X87.957 Y148.171 E7.22883
G1 X88.173 Y145.655 E7.31282
G1 X88.317 Y143.138 E7.39667
G1 X88.389 Y140.652 E7.47939
G1 X88.391 Y138.127 E7.56337
G1 X88.321 Y135.597 E7.64755
G1 X88.182 Y133.09 E7.73106
G1 X87.971 Y130.596 E7.81431
G1 X87.686 Y128.068 E7.89893
G1 X87.33 Y125.558 E7.98324
G1 X87.085 Y124.063 E8.03363
G1 X87.017 Y123.668 E8.04696
G1 X86.897 Y122.738 E8.07815
G1 X86.861 Y122.115 E8.09891
G1 X86.852 Y121.8 E8.10939
G1 X86.848 Y121.482 E8.11996
G1 X86.85 Y118.328 E8.22487
G1 X86.86 Y117.654 E8.24729
G1 X86.914 Y116.717 E8.2785
G1 X87.048 Y115.789 E8.30969
G1 X87.26 Y114.876 E8.34086
G1 X87.549 Y113.983 E8.37208
G1 X87.913 Y113.119 E8.40326
G1 X88.349 Y112.289 E8.43445
G1 X88.818 Y111.552 E8.4635
G1 X89.271 Y110.9 E8.48991
G1 X90.078 Y109.778 E8.53588
G1 X91.472 Y107.717 E8.61863
G1 X92.832 Y105.58 E8.70288
G1 X94.125 Y103.415 E8.78676
G1 X95.337 Y101.248 E8.86934
G1 X96.515 Y98.997 E8.95384
G1 X97.624 Y96.722 E9.03802
G1 X98.661 Y94.43 E9.12169
G1 X99.622 Y92.138 E9.20435
G1 X100.544 Y89.752 E9.28943
G1 X101.381 Y87.388 E9.37284
G1 X102.148 Y85.007 E9.45604
G1 X102.851 Y82.597 E9.53954
G1 X102.997 Y82.043 E9.55859
G1 X103.312 Y80.9 E9.59802
G1 X103.6 Y80.008 E9.6292
G1 X103.962 Y79.143 E9.66039
G1 X104.397 Y78.312 E9.69159
G1 X104.901 Y77.521 E9.72278
G0 F6000 X105.268 Y77.695
G1 F1200 X105.832 Y76.967 E9.75341
G1 X106.458 Y76.292 E9.78403
G1 X107.139 Y75.673 E9.81464
G1 X107.872 Y75.116 E9.84526
G1 X108.651 Y74.624 E9.8759
G1 X109.469 Y74.202 E9.90652
G1 X110.32 Y73.852 E9.93712
G1 X111.199 Y73.577 E9.96775
G1 X112.098 Y73.38 E9.99836
G1 X113.011 Y73.262 E10.02898
G1 X113.598 Y73.228 E10.04854
G1 X113.93 Y73.218 E10.05959
G1 X114.249 Y73.213 E10.0702
G1 X132.586 Y73.213 E10.68009
G1 X137.791 Y73.201 E10.85321
G1 X138.641 Y73.21 E10.88148
G1 X139.56 Y73.26 E10.91209
G1 X140.472 Y73.39 E10.94273
G1 X141.369 Y73.599 E10.97337
G1 X142.244 Y73.884 E11.00397
G1 X143.091 Y74.245 E11.0346
G1 X143.904 Y74.677 E11.06522
G1 X144.676 Y75.179 E11.09585
G1 X145.401 Y75.745 E11.12644
G1 X146.075 Y76.373 E11.15708
G1 X146.692 Y77.056 E11.18769
G1 X147.247 Y77.791 E11.21832
G1 X147.736 Y78.571 E11.24894
G1 X148.156 Y79.39 E11.27956
G1 X148.503 Y80.243 E11.31019
G1 X148.775 Y81.122 E11.34079
G1 X148.969 Y82.022 E11.37141
G1 X149.085 Y82.936 E11.40205
G1 X149.117 Y83.523 E11.42161
G1 X149.126 Y83.856 E11.43269
G1 X149.13 Y84.142 E11.4422
G1 X149.131 Y121.805 E12.69488
G1 X149.128 Y122.886 E12.73083
G1 X149.13 Y123.113 E12.73838
G1 X149.129 Y160.208 E13.97217
G1 X149.119 Y160.936 E13.99638
G1 X149.066 Y161.855 E14.027
G1 X148.934 Y162.766 E14.05761
G1 X148.723 Y163.662 E14.08823
G1 X148.436 Y164.537 E14.11886
G1 X148.073 Y165.383 E14.14948
G1 X147.639 Y166.195 E14.1801
G1 X147.135 Y166.965 E14.21071
G1 X146.567 Y167.69 E14.24134
G1 X145.938 Y168.362 E14.27196
G1 X145.253 Y168.977 E14.30257
G1 X144.517 Y169.53 E14.33319
G1 X143.736 Y170.018 E14.36382
G1 X142.916 Y170.436 E14.39444
G1 X142.062 Y170.781 E14.42507
G1 X141.182 Y171.05 E14.45568
G1 X140.282 Y171.243 E14.48629
G1 X139.368 Y171.356 E14.51692
G1 X138.818 Y171.386 E14.53524
G1 X138.498 Y171.395 E14.54589
G1 X138.2 Y171.399 E14.5558
G1 X134.249 Y171.399 E14.68721
G1 X133.485 Y171.411 E14.71263
G1 X133.298 Y171.406 E14.71885
G1 X132.294 Y171.413 E14.75224
G1 X98.403 Y171.412 E15.87946
G1 X97.705 Y171.402 E15.90268
G1 X96.786 Y171.349 E15.9333
G1 X95.875 Y171.216 E15.96392
G1 X94.979 Y171.005 E15.99453
G1 X94.105 Y170.717 E16.02514
G1 X93.258 Y170.354 E16.05579
G1 X92.447 Y169.919 E16.0864
G1 X91.677 Y169.415 E16.11701
G1 X90.953 Y168.846 E16.14764
G1 X90.281 Y168.216 E16.17827
G1 X89.666 Y167.531 E16.20889
G1 X89.113 Y166.795 E16.23951
G1 X88.626 Y166.014 E16.27012
G1 X88.209 Y165.193 E16.30075
G1 X87.864 Y164.339 E16.33138
G1 X87.595 Y163.459 E16.36199
G1 X87.403 Y162.558 E16.39263
G1 X87.29 Y161.645 E16.42323
G1 X87.26 Y161.061 E16.44268
G1 X87.251 Y160.691 E16.45499
G1 X87.248 Y160.429 E16.4637
G1 X87.25 Y157.334 E16.56664
G1 X87.26 Y156.657 E16.58916
G1 X87.314 Y155.738 E16.61978
G1 X87.387 Y155.172 E16.63876
G1 X87.538 Y154.215 E16.67099
G1 X87.709 Y153.222 E16.7045
G1 X88.068 Y150.717 E16.78867
G1 X88.355 Y148.215 E16.87243
G1 X88.57 Y145.714 E16.95592
G1 X88.715 Y143.173 E17.04057
G1 X88.789 Y140.629 E17.12522
G1 X88.791 Y138.116 E17.2088
G1 X88.721 Y135.598 E17.29259
G1 X88.579 Y133.038 E17.37786
G1 X88.369 Y130.551 E17.46088
G1 X88.086 Y128.038 E17.54499
G1 X87.723 Y125.481 E17.63089
G1 X87.48 Y123.998 E17.68087
G1 X87.411 Y123.6 E17.6943
G1 X87.294 Y122.687 E17.72492
G1 X87.261 Y122.104 E17.74434
G1 X87.252 Y121.789 E17.75482
G1 X87.248 Y121.482 E17.76503
G1 X87.25 Y118.334 E17.86974
G1 X87.26 Y117.66 E17.89215
G1 X87.314 Y116.741 E17.92277
G1 X87.447 Y115.83 E17.95339
G1 X87.659 Y114.934 E17.98402
G1 X87.947 Y114.059 E18.01466
G1 X88.311 Y113.214 E18.04526
G1 X88.746 Y112.402 E18.0759
G1 X89.146 Y111.78 E18.10049
G1 X89.489 Y111.285 E18.12052
G1 X90.39 Y110.03 E18.17191
G1 X91.814 Y107.925 E18.25644
G1 X93.164 Y105.803 E18.34009
G1 X94.474 Y103.609 E18.42508
G1 X95.702 Y101.414 E18.50873
G1 X96.879 Y99.165 E18.59316
G1 X97.97 Y96.926 E18.676
G1 X99.022 Y94.601 E18.76088
G1 X99.999 Y92.271 E18.84491
G1 X100.918 Y89.892 E18.92973
G1 X101.755 Y87.528 E19.01314
G1 X102.536 Y85.105 E19.09782
G1 X103.237 Y82.705 E19.18098
G1 X103.383 Y82.15 E19.20006
G1 X103.698 Y81.007 E19.2395
G1 X103.981 Y80.131 E19.27011
G1 X104.339 Y79.282 E19.30076
G1 X104.769 Y78.468 E19.33138
G1 X105.268 Y77.695 E19.36198
G0 F6000 X105.634 Y77.87
G1 F1200 X106.193 Y77.161 E19.39201
G1 X106.813 Y76.504 E19.42206
G1 X107.488 Y75.904 E19.45209
G1 X108.214 Y75.366 E19.48215
G1 X108.984 Y74.895 E19.51217
G1 X109.793 Y74.494 E19.5422
G1 X110.635 Y74.166 E19.57226
G1 X111.502 Y73.913 E19.6023
G1 X112.388 Y73.738 E19.63233
G1 X113.61 Y73.628 E19.67314
G1 X113.942 Y73.618 E19.68419
G1 X114.249 Y73.613 E19.6944
G1 X132.586 Y73.613 E20.30429
G1 X137.791 Y73.601 E20.47741
G1 X138.637 Y73.61 E20.50555
G1 X139.538 Y73.66 E20.53556
G1 X140.432 Y73.79 E20.56561
G1 X141.311 Y73.998 E20.59566
G1 X142.168 Y74.283 E20.62569
G1 X142.996 Y74.643 E20.65572
G1 X143.789 Y75.075 E20.68576
G1 X144.541 Y75.575 E20.71579
G1 X145.246 Y76.14 E20.74584
G1 X145.898 Y76.765 E20.77588
G1 X146.492 Y77.445 E20.80591
G1 X147.024 Y78.175 E20.83596
G1 X147.489 Y78.949 E20.86599
G1 X147.883 Y79.761 E20.89601
G1 X148.205 Y80.605 E20.92605
G1 X148.45 Y81.474 E20.95608
G1 X148.618 Y82.362 E20.98614
G1 X148.717 Y83.533 E21.02523
G1 X148.726 Y83.866 E21.03631
G1 X148.73 Y84.142 E21.04549
G1 X148.731 Y121.804 E22.29813
G1 X148.728 Y122.889 E22.33422
G1 X148.73 Y123.116 E22.34177
G1 X148.729 Y160.202 E23.57526
G1 X148.719 Y160.93 E23.59947
G1 X148.667 Y161.832 E23.62952
G1 X148.535 Y162.725 E23.65955
G1 X148.324 Y163.603 E23.68958
G1 X148.037 Y164.46 E23.71964
G1 X147.675 Y165.287 E23.74967
G1 X147.242 Y166.079 E23.77969
G1 X146.739 Y166.83 E23.80975
G1 X146.173 Y167.533 E23.83977
G1 X145.547 Y168.184 E23.86981
G1 X144.865 Y168.776 E23.89984
G1 X144.134 Y169.306 E23.92988
G1 X143.358 Y169.769 E23.95993
G1 X142.545 Y170.162 E23.98996
G1 X141.7 Y170.481 E24.02001
G1 X140.831 Y170.725 E24.05003
G1 X139.943 Y170.89 E24.08007
G1 X138.807 Y170.986 E24.11799
G1 X138.487 Y170.995 E24.12863
G1 X138.2 Y170.999 E24.13818
G1 X134.243 Y170.999 E24.26979
G1 X133.479 Y171.011 E24.2952
G1 X133.295 Y171.006 E24.30133
G1 X132.291 Y171.013 E24.33472
G1 X98.409 Y171.012 E25.46164
G1 X97.711 Y171.002 E25.48486
G1 X96.809 Y170.949 E25.51491
G1 X95.916 Y170.817 E25.54493
G1 X95.038 Y170.606 E25.57497
G1 X94.182 Y170.318 E25.60501
G1 X93.355 Y169.956 E25.63503
G1 X92.563 Y169.521 E25.66509
G1 X91.812 Y169.019 E25.69513
G1 X91.109 Y168.452 E25.72517
G1 X90.459 Y167.825 E25.75521
G1 X89.867 Y167.143 E25.78525
G1 X89.337 Y166.412 E25.81528
G1 X88.875 Y165.636 E25.84531
G1 X88.482 Y164.823 E25.87535
G1 X88.164 Y163.978 E25.90538
G1 X87.921 Y163.108 E25.93542
G1 X87.756 Y162.22 E25.96546
G1 X87.66 Y161.051 E26.00447
G1 X87.651 Y160.681 E26.01678
G1 X87.648 Y160.43 E26.02513
G1 X87.65 Y157.34 E26.12791
G1 X87.66 Y156.663 E26.15043
G1 X87.713 Y155.762 E26.18045
G1 X87.782 Y155.234 E26.19816
G1 X87.907 Y154.437 E26.22499
G1 X88.101 Y153.309 E26.26306
G1 X88.462 Y150.787 E26.34779
G1 X88.752 Y148.258 E26.43246
G1 X88.972 Y145.7 E26.51785
G1 X89.115 Y143.208 E26.60087
G1 X89.189 Y140.64 E26.68632
G1 X89.191 Y138.106 E26.7706
G1 X89.121 Y135.565 E26.85515
G1 X88.981 Y133.05 E26.93893
G1 X88.766 Y130.508 E27.02378
G1 X88.48 Y127.969 E27.10876
G1 X88.125 Y125.462 E27.19297
G1 X87.874 Y123.934 E27.24448
G1 X87.805 Y123.532 E27.25804
G1 X87.691 Y122.636 E27.28808
G1 X87.661 Y122.092 E27.3062
G1 X87.652 Y121.777 E27.31669
G1 X87.648 Y121.483 E27.32646
G1 X87.65 Y118.34 E27.431
G1 X87.66 Y117.666 E27.45342
G1 X87.713 Y116.764 E27.48347
G1 X87.846 Y115.871 E27.5135
G1 X88.058 Y114.993 E27.54354
G1 X88.346 Y114.137 E27.57358
G1 X88.709 Y113.31 E27.60362
G1 X89.143 Y112.518 E27.63366
G1 X89.475 Y112.008 E27.6539
G1 X89.921 Y111.367 E27.67987
G1 X90.731 Y110.241 E27.72601
G1 X92.134 Y108.167 E27.80929
G1 X93.518 Y105.992 E27.89503
G1 X94.809 Y103.83 E27.97879
G1 X96.052 Y101.609 E28.06344
G1 X97.227 Y99.361 E28.14781
G1 X98.35 Y97.059 E28.233
G1 X99.379 Y94.784 E28.31604
G1 X100.37 Y92.42 E28.4013
G1 X101.297 Y90.022 E28.48681
G1 X102.137 Y87.647 E28.5706
G1 X102.915 Y85.234 E28.65492
G1 X103.622 Y82.813 E28.73881
G1 X103.769 Y82.256 E28.75797
G1 X104.084 Y81.113 E28.7974
G1 X104.362 Y80.254 E28.82743
G1 X104.715 Y79.423 E28.85746
G1 X105.14 Y78.626 E28.8875
G1 X105.634 Y77.87 E28.91754
G1 F2700 E23.91754
;MESH:77887780-0628-417e-9448-96322b811c23.stl
G0 F6000 X113.247 Y87.97
G0 X131.867 Y107.24
G0 X132.949 Y107.564
G0 X126.086 Y118.588
G0 X98.631 Y118.595
G0 X98.63 Y121.031
G0 X131.93 Y121.213
;TYPE:WALL-INNER
G1 F2700 E28.91754
G1 F1200 X98.647 Y121.213 E30.02454
G1 X98.448 Y121.213 E30.03116
G1 X98.448 Y121.014 E30.03544
G1 X98.449 Y118.413 E30.12195
G1 X125.991 Y118.413 E31.038
G1 X133.13 Y107.619 E31.46843
G1 X133.13 Y87.213 E32.14713
G1 X114.707 Y87.213 E32.75988
G1 X114.508 Y87.213 E32.7665
G1 X114.508 Y87.014 E32.77078
G1 X114.509 Y84.413 E32.85729
G1 X132.61 Y84.413 E33.45934
G1 X137.731 Y84.4 E33.62966
G1 X137.93 Y84.4 E33.63628
G1 X137.93 Y84.599 E33.64056
G1 X137.93 Y121.199 E34.85788
G1 X131.93 Y121.199 E35.05744
G1 X131.93 Y121.213 E35.05791
G0 F6000 X132.33 Y121.613
;TYPE:WALL-OUTER
G1 F1200 X98.048 Y121.613 E36.19813
G1 X98.049 Y118.013 E36.31787
G1 X125.776 Y118.013 E37.24007
G1 X132.73 Y107.499 E37.65934
G1 X132.73 Y87.613 E38.32075
G1 X114.108 Y87.613 E38.94012
G1 X114.109 Y84.013 E39.05986
G1 X132.61 Y84.013 E39.6752
G1 X138.33 Y83.999 E39.86545
G1 X138.33 Y121.599 E41.11603
G1 X132.33 Y121.599 E41.31559
G1 X132.33 Y121.613 E41.31606
G0 F6000 X132.019 Y121.173
G0 X131.54 Y120.823
;TYPE:SKIN
G1 F1200 X98.838 Y120.823 E42.40373
G1 X98.839 Y118.803 E42.47092
G1 X126.201 Y118.803 E43.38098
G1 X133.52 Y107.736 E43.82228
G1 X133.52 Y86.823 E44.51785
G1 X114.898 Y86.823 E45.13722
G1 X114.899 Y84.803 E45.20441
G1 X132.61 Y84.803 E45.79348
G1 X137.54 Y84.79 E45.95745
G1 X137.54 Y120.809 E47.15545
G1 X131.54 Y120.809 E47.35501
G1 X131.54 Y120.823 E47.35548
G1 F2700 E42.35548
G0 F6000 X131.54 Y121.103
G0 X99.166 Y121.103
G0 X99.166 Y120.662
G1 F2700 E47.35548
G1 F1200 X98.997 Y120.493 E47.36343
G0 F6000 X98.997 Y119.928
G1 F1200 X99.731 Y120.662 E47.39795
G0 F6000 X100.297 Y120.662
G1 F1200 X98.998 Y119.363 E47.45905
G0 F6000 X99.163 Y118.962
G1 F1200 X100.863 Y120.662 E47.53901
G0 F6000 X101.428 Y120.662
G1 F1200 X99.729 Y118.962 E47.61895
G0 F6000 X100.295 Y118.962
G1 F1200 X101.994 Y120.662 E47.69889
G0 F6000 X102.56 Y120.662
G1 F1200 X100.861 Y118.962 E47.77883
G0 F6000 X101.426 Y118.962
G1 F1200 X103.125 Y120.662 E47.85877
G0 F6000 X103.691 Y120.662
G1 F1200 X101.992 Y118.962 E47.93871
G0 F6000 X102.558 Y118.962
G1 F1200 X104.257 Y120.662 E48.01865
G0 F6000 X104.822 Y120.662
