;FLAVOR:Marlin
;TIME:8058
;Filament used: 5.16375m
;Layer height: 0.2
;MINX:87.419
;MINY:50.57
;MINZ:0.2
;MAXX:147.581
;MAXY:151.671
;MAXZ:24.4
;Generated with Cura_SteamEngine 4.9.0
M140 S50
M105
M190 S50
M104 S200
M105
M109 S200
M82 ;absolute extrusion mode
; Ender 3 Custom Start G-code
G92 E0 ; Reset Extruder
G28 ; Home all axes
G1 Z2.0 F3000 ; Move Z Axis up little to prevent scratching of Heat Bed
G1 X0.1 Y20 Z0.3 F5000.0 ; Move to start position
G1 X0.1 Y200.0 Z0.3 F1500.0 E15 ; Draw the first line
G1 X0.4 Y200.0 Z0.3 F5000.0 ; Move to side a little
G1 X0.4 Y20 Z0.3 F1500.0 E30 ; Draw the second line
G92 E0 ; Reset Extruder
G1 Z2.0 F3000 ; Move Z Axis up little to prevent scratching of Heat Bed
G1 X5 Y20 Z0.3 F5000.0 ; Move over to prevent blob squish
G92 E0
G92 E0
G1 F2700 E-5
;LAYER_COUNT:122
;LAYER:0
M107
G0 F6000 X94.669 Y56.166 Z0.2
;TYPE:SKIRT
G1 F2700 E0
G1 F1200 X95.174 Y55.375 E0.03121
G1 X95.745 Y54.631 E0.06241
G1 X96.402 Y53.914 E0.09475
G1 X96.514 Y53.802 E0.10002
G1 X97.205 Y53.168 E0.13121
G1 X97.947 Y52.594 E0.16241
G1 X98.736 Y52.087 E0.19361
G1 X99.564 Y51.648 E0.22478
G1 X100.428 Y51.281 E0.256
G1 X101.319 Y50.989 E0.28718
G1 X102.232 Y50.775 E0.31837
G1 X103.16 Y50.638 E0.34957
G1 X103.921 Y50.586 E0.37494
G1 X104.306 Y50.576 E0.38775
G1 X104.849 Y50.57 E0.40581
G1 X110.681 Y50.57 E0.59979
G1 X111.613 Y50.582 E0.63079
G1 X111.928 Y50.591 E0.64127
G1 X114.572 Y50.704 E0.72929
G1 X117.094 Y50.741 E0.81318
G1 X119.6 Y50.706 E0.89654
G1 X122.004 Y50.607 E0.97656
G1 X122.245 Y50.6 E0.98458
G1 X123.694 Y50.572 E1.03279
G1 X123.907 Y50.57 E1.03987
G1 X125.073 Y50.571 E1.07865
G1 X126.065 Y50.585 E1.11165
G1 X126.404 Y50.595 E1.12293
G1 X128.471 Y50.688 E1.19175
G1 X130.964 Y50.73 E1.27468
G1 X133.454 Y50.701 E1.3575
G1 X134.515 Y50.654 E1.39282
G1 X134.802 Y50.653 E1.40237
G1 X136.055 Y50.609 E1.44407
G1 X136.993 Y50.616 E1.47527
G1 X137.926 Y50.702 E1.50643
G1 X138.849 Y50.868 E1.53762
G1 X139.755 Y51.112 E1.56883
G1 X140.637 Y51.432 E1.60004
G1 X141.488 Y51.826 E1.63123
G1 X142.302 Y52.292 E1.66242
G1 X143.074 Y52.824 E1.69361
G1 X143.827 Y53.448 E1.72613
G1 X143.954 Y53.563 E1.73183
G1 X144.622 Y54.222 E1.76304
G1 X145.231 Y54.935 E1.79423
G1 X145.778 Y55.697 E1.82543
G1 X146.257 Y56.503 E1.85661
G1 X146.666 Y57.347 E1.88781
G1 X147.001 Y58.223 E1.919
G1 X147.261 Y59.124 E1.95019
G1 X147.443 Y60.044 E1.98138
G1 X147.565 Y61.361 E2.02537
G1 X147.577 Y61.801 E2.04001
G1 X147.581 Y62.183 E2.05272
G1 X147.581 Y116.427 E3.85688
G1 X147.569 Y117.306 E3.88612
G1 X147.514 Y118.243 E3.91734
G1 X147.439 Y118.829 E3.93699
G1 X147.335 Y119.485 E3.95908
G1 X147.06 Y121.086 E4.01311
G1 X146.704 Y123.589 E4.0972
G1 X146.417 Y126.11 E4.18159
G1 X146.205 Y128.603 E4.2648
G1 X146.064 Y131.087 E4.34756
G1 X145.991 Y133.675 E4.43367
G1 X145.982 Y134.971 E4.47677
G1 X145.981 Y140.086 E4.6469
G1 X145.971 Y140.813 E4.67108
G1 X145.918 Y141.75 E4.7023
G1 X145.786 Y142.678 E4.73347
G1 X145.575 Y143.592 E4.76467
G1 X145.286 Y144.484 E4.79586
G1 X144.923 Y145.349 E4.82706
G1 X144.488 Y146.18 E4.85826
G1 X143.983 Y146.97 E4.88944
G1 X143.413 Y147.715 E4.92064
G1 X142.782 Y148.409 E4.95184
G1 X142.093 Y149.046 E4.98305
G1 X141.353 Y149.622 E5.01424
G1 X140.567 Y150.133 E5.04542
G1 X139.74 Y150.575 E5.07661
G1 X138.878 Y150.945 E5.10781
G1 X137.988 Y151.24 E5.13899
G1 X137.076 Y151.459 E5.17019
G1 X136.149 Y151.599 E5.20137
G1 X135.281 Y151.658 E5.2303
G1 X134.961 Y151.667 E5.24095
G1 X134.652 Y151.671 E5.25123
G1 X131.519 Y151.67 E5.35543
G1 X130.801 Y151.659 E5.37932
G1 X129.569 Y151.57 E5.4204
G1 X127.937 Y151.359 E5.47513
G1 X125.454 Y151.079 E5.55824
G1 X122.907 Y150.866 E5.64325
G1 X120.426 Y150.729 E5.7259
G1 X117.897 Y150.66 E5.81004
G1 X115.372 Y150.664 E5.89402
G1 X112.858 Y150.738 E5.97768
G1 X110.358 Y150.883 E6.06097
G1 X107.879 Y151.097 E6.14372
G1 X103.899 Y151.581 E6.27707
G1 X102.88 Y151.658 E6.31106
G1 X102.561 Y151.667 E6.32168
G1 X102.251 Y151.671 E6.33199
G1 X98.984 Y151.67 E6.44065
G1 X98.286 Y151.661 E6.46387
G1 X97.35 Y151.609 E6.49505
G1 X96.421 Y151.477 E6.52626
G1 X95.507 Y151.267 E6.55745
G1 X94.614 Y150.98 E6.58865
G1 X93.749 Y150.617 E6.61985
G1 X92.918 Y150.183 E6.65103
G1 X92.127 Y149.679 E6.68222
G1 X91.382 Y149.109 E6.71342
G1 X90.688 Y148.478 E6.74462
G1 X90.051 Y147.791 E6.77578
G1 X89.474 Y147.051 E6.80699
G1 X88.962 Y146.265 E6.83819
G1 X88.519 Y145.438 E6.86939
G1 X88.148 Y144.577 E6.90058
G1 X87.852 Y143.687 E6.93177
G1 X87.633 Y142.775 E6.96297
G1 X87.492 Y141.848 E6.99415
G1 X87.432 Y140.959 E7.02379
G1 X87.423 Y140.626 E7.03487
G1 X87.419 Y140.329 E7.04475
G1 X87.42 Y113.735 E7.92927
G1 X87.431 Y113.026 E7.95285
G1 X87.486 Y112.09 E7.98404
G1 X87.62 Y111.162 E8.01522
G1 X87.833 Y110.248 E8.04644
G1 X88.009 Y109.676 E8.06634
G1 X88.502 Y108.219 E8.1175
G1 X88.534 Y108.129 E8.12068
G1 X89.296 Y105.752 E8.2037
G1 X89.992 Y103.347 E8.28697
G1 X90.628 Y100.893 E8.37129
G1 X91.197 Y98.417 E8.45579
G1 X91.685 Y95.967 E8.53888
G1 X92.105 Y93.497 E8.62221
G1 X92.46 Y90.986 E8.70656
G1 X92.744 Y88.475 E8.79061
G1 X92.952 Y85.994 E8.87341
G1 X93.09 Y83.521 E8.95579
G1 X93.17 Y79.649 E9.0846
G1 X93.171 Y62.213 E9.66453
G1 X93.181 Y61.531 E9.68721
G1 X93.235 Y60.594 E9.71843
G1 X93.368 Y59.666 E9.74961
G1 X93.58 Y58.752 E9.78082
G1 X93.869 Y57.86 E9.812
G1 X94.233 Y56.996 E9.84319
G1 X94.669 Y56.166 E9.87437
G0 F6000 X95.066 Y56.279
G1 F1200 X95.57 Y55.509 E9.90498
G1 X96.139 Y54.785 E9.93561
G1 X96.685 Y54.197 E9.96229
G1 X96.797 Y54.085 E9.96756
G1 X97.475 Y53.463 E9.99816
G1 X98.205 Y52.902 E10.02879
G1 X98.981 Y52.406 E10.05942
G1 X99.797 Y51.98 E10.09003
G1 X100.647 Y51.626 E10.12066
G1 X101.525 Y51.348 E10.15129
G1 X102.423 Y51.146 E10.1819
G1 X103.336 Y51.023 E10.21254
G1 X103.934 Y50.986 E10.23247
G1 X104.31 Y50.976 E10.24498
G1 X104.849 Y50.97 E10.26291
G1 X110.681 Y50.97 E10.45688
G1 X111.607 Y50.982 E10.48769
G1 X111.911 Y50.991 E10.4978
G1 X114.549 Y51.104 E10.58562
G1 X117.095 Y51.141 E10.67031
G1 X119.622 Y51.106 E10.75437
G1 X122.021 Y51.007 E10.83423
G1 X122.253 Y51 E10.84195
G1 X123.702 Y50.972 E10.89015
G1 X123.907 Y50.97 E10.89697
G1 X125.068 Y50.971 E10.93558
G1 X126.06 Y50.985 E10.96858
G1 X126.386 Y50.995 E10.97943
G1 X128.446 Y51.088 E11.04801
G1 X130.961 Y51.13 E11.13167
G1 X133.447 Y51.101 E11.21436
G1 X134.533 Y51.053 E11.25052
G1 X134.827 Y51.053 E11.2603
G1 X136.069 Y51.009 E11.30163
G1 X136.989 Y51.016 E11.33223
G1 X137.906 Y51.103 E11.36287
G1 X138.811 Y51.27 E11.39348
G1 X139.699 Y51.514 E11.42411
G1 X140.562 Y51.835 E11.45473
G1 X141.394 Y52.229 E11.48535
G1 X142.189 Y52.694 E11.51599
G1 X142.94 Y53.226 E11.5466
G1 X143.559 Y53.745 E11.57346
G1 X143.686 Y53.86 E11.57916
G1 X144.341 Y54.507 E11.60978
G1 X144.937 Y55.208 E11.64039
G1 X145.47 Y55.959 E11.67102
G1 X145.937 Y56.753 E11.70165
G1 X146.332 Y57.584 E11.73226
G1 X146.654 Y58.446 E11.76286
G1 X146.9 Y59.334 E11.79351
G1 X147.067 Y60.239 E11.82412
G1 X147.165 Y61.374 E11.86201
G1 X147.177 Y61.806 E11.87638
G1 X147.181 Y62.183 E11.88892
G1 X147.181 Y116.427 E13.69309
G1 X147.169 Y117.3 E13.72212
G1 X147.115 Y118.219 E13.75274
G1 X147.044 Y118.767 E13.77112
G1 X146.941 Y119.417 E13.79301
G1 X146.664 Y121.032 E13.84751
G1 X146.304 Y123.554 E13.93224
G1 X146.024 Y126.029 E14.01509
G1 X145.806 Y128.584 E14.10037
G1 X145.664 Y131.089 E14.18382
G1 X145.591 Y133.661 E14.2694
G1 X145.582 Y134.968 E14.31288
G1 X145.581 Y140.081 E14.48294
G1 X145.571 Y140.808 E14.50712
G1 X145.518 Y141.727 E14.53773
G1 X145.386 Y142.638 E14.56835
G1 X145.175 Y143.534 E14.59897
G1 X144.888 Y144.409 E14.6296
G1 X144.525 Y145.255 E14.66021
G1 X144.091 Y146.067 E14.69084
G1 X143.587 Y146.838 E14.72147
G1 X143.019 Y147.562 E14.75208
G1 X142.39 Y148.234 E14.78269
G1 X141.705 Y148.849 E14.81331
G1 X140.969 Y149.402 E14.84393
G1 X140.188 Y149.89 E14.87456
G1 X139.368 Y150.308 E14.90517
G1 X138.514 Y150.653 E14.93581
G1 X137.634 Y150.922 E14.96641
G1 X136.733 Y151.115 E14.99706
G1 X135.82 Y151.228 E15.02766
G1 X135.27 Y151.258 E15.04598
G1 X134.95 Y151.267 E15.05663
G1 X134.652 Y151.271 E15.06654
G1 X131.526 Y151.27 E15.17051
G1 X130.808 Y151.259 E15.1944
G1 X129.62 Y151.174 E15.23401
G1 X128.139 Y150.983 E15.28368
G1 X128.001 Y150.964 E15.28831
G1 X125.461 Y150.678 E15.37332
G1 X122.964 Y150.469 E15.45666
G1 X120.424 Y150.329 E15.54127
G1 X117.907 Y150.26 E15.62502
G1 X115.359 Y150.264 E15.70977
G1 X112.858 Y150.337 E15.79299
G1 X110.337 Y150.484 E15.87698
G1 X107.825 Y150.7 E15.96084
G1 X103.851 Y151.184 E16.09399
G1 X102.869 Y151.258 E16.12674
G1 X102.55 Y151.267 E16.13736
G1 X102.251 Y151.271 E16.1473
G1 X98.989 Y151.27 E16.2558
G1 X98.291 Y151.261 E16.27901
G1 X97.372 Y151.209 E16.30963
G1 X96.461 Y151.078 E16.34024
G1 X95.565 Y150.868 E16.37085
G1 X94.69 Y150.581 E16.40148
G1 X93.843 Y150.219 E16.43211
G1 X93.031 Y149.785 E16.46274
G1 X92.26 Y149.283 E16.49334
G1 X91.535 Y148.715 E16.52397
G1 X90.862 Y148.086 E16.55461
G1 X90.247 Y147.402 E16.5852
G1 X89.693 Y146.667 E16.61581
G1 X89.205 Y145.886 E16.64644
G1 X88.786 Y145.066 E16.67707
G1 X88.44 Y144.213 E16.70769
G1 X88.17 Y143.333 E16.7383
G1 X87.977 Y142.432 E16.76895
G1 X87.863 Y141.519 E16.79955
G1 X87.832 Y140.948 E16.81857
G1 X87.823 Y140.615 E16.82965
G1 X87.819 Y140.329 E16.83917
G1 X87.82 Y113.742 E17.72345
G1 X87.831 Y113.033 E17.74704
G1 X87.886 Y112.114 E17.77766
G1 X88.019 Y111.203 E17.80828
G1 X88.232 Y110.307 E17.83891
G1 X88.388 Y109.804 E17.85643
G1 X88.879 Y108.352 E17.90741
G1 X88.905 Y108.279 E17.90998
G1 X89.684 Y105.848 E17.99489
G1 X90.377 Y103.453 E18.07781
G1 X91.019 Y100.977 E18.16289
G1 X91.593 Y98.48 E18.24811
G1 X92.072 Y96.075 E18.32967
G1 X92.508 Y93.514 E18.41607
G1 X92.856 Y91.05 E18.49884
G1 X93.138 Y88.555 E18.58235
G1 X93.351 Y86.014 E18.66716
G1 X93.49 Y83.523 E18.75014
G1 X93.57 Y79.657 E18.87875
G1 X93.571 Y62.219 E19.45874
G1 X93.581 Y61.537 E19.48143
G1 X93.635 Y60.617 E19.51208
G1 X93.768 Y59.707 E19.54267
G1 X93.979 Y58.81 E19.57332
G1 X94.268 Y57.936 E19.60394
G1 X94.631 Y57.09 E19.63455
G1 X95.066 Y56.279 E19.66516
G0 F6000 X95.463 Y56.395
G1 F1200 X95.966 Y55.645 E19.6952
G1 X96.533 Y54.942 E19.72524
G1 X96.968 Y54.48 E19.74634
G1 X97.08 Y54.368 E19.75161
G1 X97.746 Y53.758 E19.78165
G1 X98.463 Y53.209 E19.81169
G1 X99.227 Y52.727 E19.84173
G1 X100.03 Y52.313 E19.87178
G1 X100.866 Y51.973 E19.9018
G1 X101.729 Y51.707 E19.93183
G1 X102.612 Y51.519 E19.96186
G1 X103.948 Y51.386 E20.00652
G1 X104.315 Y51.376 E20.01873
G1 X104.849 Y51.37 E20.03649
G1 X110.681 Y51.37 E20.23046
G1 X111.602 Y51.382 E20.2611
G1 X111.893 Y51.39 E20.27078
G1 X114.56 Y51.504 E20.35957
G1 X117.094 Y51.541 E20.44386
G1 X119.644 Y51.506 E20.52868
G1 X122.037 Y51.407 E20.60834
G1 X122.261 Y51.4 E20.61579
G1 X123.71 Y51.372 E20.66399
G1 X123.907 Y51.37 E20.67055
G1 X125.062 Y51.371 E20.70896
G1 X126.054 Y51.385 E20.74196
G1 X126.368 Y51.394 E20.75241
G1 X128.421 Y51.486 E20.82076
G1 X130.994 Y51.53 E20.90635
G1 X133.47 Y51.501 E20.98871
G1 X134.551 Y51.453 E21.0247
G1 X134.812 Y51.453 E21.03338
G1 X136.083 Y51.408 E21.07568
G1 X136.986 Y51.416 E21.10571
G1 X137.885 Y51.504 E21.13576
G1 X138.772 Y51.671 E21.16578
G1 X139.642 Y51.916 E21.19584
G1 X140.486 Y52.237 E21.22587
G1 X141.298 Y52.631 E21.25589
G1 X142.073 Y53.096 E21.28595
G1 X142.803 Y53.627 E21.31597
G1 X143.29 Y54.041 E21.33723
G1 X143.417 Y54.156 E21.34293
G1 X144.059 Y54.791 E21.37297
G1 X144.643 Y55.481 E21.40303
G1 X145.163 Y56.219 E21.43306
G1 X145.615 Y57.001 E21.4631
G1 X145.997 Y57.819 E21.49313
G1 X146.305 Y58.668 E21.52317
G1 X146.536 Y59.541 E21.5532
G1 X146.69 Y60.431 E21.58324
G1 X146.766 Y61.387 E21.61514
G1 X146.777 Y61.811 E21.62925
G1 X146.781 Y62.183 E21.64162
G1 X146.781 Y116.426 E23.44575
G1 X146.769 Y117.294 E23.47462
G1 X146.715 Y118.196 E23.50468
G1 X146.649 Y118.706 E23.52178
G1 X146.547 Y119.35 E23.54347
G1 X146.267 Y120.98 E23.59848
G1 X145.91 Y123.489 E23.68277
G1 X145.622 Y126.021 E23.76752
G1 X145.409 Y128.528 E23.85121
G1 X145.264 Y131.089 E23.93652
G1 X145.191 Y133.648 E24.02167
G1 X145.182 Y134.965 E24.06547
G1 X145.181 Y140.075 E24.23543
G1 X145.171 Y140.802 E24.25962
G1 X145.119 Y141.704 E24.28967
G1 X144.987 Y142.597 E24.31969
G1 X144.776 Y143.476 E24.34976
G1 X144.489 Y144.332 E24.37979
G1 X144.127 Y145.159 E24.40981
G1 X143.693 Y145.951 E24.43985
G1 X143.191 Y146.702 E24.46989
G1 X142.625 Y147.405 E24.49991
G1 X141.998 Y148.056 E24.52997
G1 X141.317 Y148.648 E24.55999
G1 X140.586 Y149.178 E24.59002
G1 X139.81 Y149.641 E24.62007
G1 X138.997 Y150.034 E24.65011
G1 X138.152 Y150.354 E24.68016
G1 X137.283 Y150.597 E24.71017
G1 X136.395 Y150.762 E24.74021
G1 X135.259 Y150.858 E24.77813
G1 X134.939 Y150.867 E24.78878
G1 X134.652 Y150.871 E24.79832
G1 X131.532 Y150.87 E24.9021
G1 X130.814 Y150.859 E24.92598
G1 X129.671 Y150.777 E24.96409
G1 X128.194 Y150.587 E25.01362
G1 X128.025 Y150.563 E25.0193
G1 X125.507 Y150.28 E25.10358
G1 X122.984 Y150.069 E25.18778
G1 X120.456 Y149.929 E25.272
G1 X117.917 Y149.86 E25.35647
G1 X115.382 Y149.864 E25.44079
G1 X112.822 Y149.939 E25.52597
G1 X110.282 Y150.086 E25.61059
G1 X107.796 Y150.301 E25.69359
G1 X103.802 Y150.787 E25.82741
G1 X102.858 Y150.858 E25.85889
G1 X102.539 Y150.867 E25.86951
G1 X102.251 Y150.871 E25.87909
G1 X98.994 Y150.87 E25.98742
G1 X98.296 Y150.861 E26.01063
G1 X97.395 Y150.81 E26.04065
G1 X96.501 Y150.678 E26.07071
G1 X95.623 Y150.469 E26.10072
G1 X94.766 Y150.182 E26.13078
G1 X93.939 Y149.821 E26.1608
G1 X93.146 Y149.388 E26.19085
G1 X92.395 Y148.887 E26.22087
G1 X91.691 Y148.321 E26.25092
G1 X91.04 Y147.695 E26.28096
G1 X90.447 Y147.014 E26.31099
G1 X89.917 Y146.283 E26.34102
G1 X89.453 Y145.508 E26.37107
G1 X89.059 Y144.695 E26.40111
G1 X88.739 Y143.851 E26.43114
G1 X88.495 Y142.981 E26.46119
G1 X88.329 Y142.093 E26.49123
G1 X88.232 Y140.938 E26.52979
G1 X88.223 Y140.605 E26.54087
G1 X88.219 Y140.329 E26.55005
G1 X88.22 Y113.748 E27.43413
G1 X88.231 Y113.039 E27.45772
G1 X88.285 Y112.137 E27.48777
G1 X88.419 Y111.244 E27.51781
G1 X88.631 Y110.366 E27.54785
G1 X88.767 Y109.932 E27.56297
G1 X89.287 Y108.397 E27.61688
G1 X90.066 Y105.967 E27.70175
G1 X90.773 Y103.527 E27.78625
G1 X91.403 Y101.096 E27.86977
G1 X91.98 Y98.582 E27.95556
G1 X92.471 Y96.114 E28.03926
G1 X92.899 Y93.6 E28.12408
G1 X93.251 Y91.119 E28.20742
G1 X93.539 Y88.559 E28.2931
G1 X93.751 Y86.036 E28.37731
G1 X93.889 Y83.553 E28.46003
G1 X93.97 Y79.666 E28.58934
G1 X93.971 Y62.224 E29.16946
G1 X93.981 Y61.542 E29.19215
G1 X94.034 Y60.641 E29.22217
G1 X94.167 Y59.748 E29.25219
G1 X94.378 Y58.87 E29.28223
G1 X94.666 Y58.014 E29.31227
G1 X95.029 Y57.187 E29.34231
G1 X95.463 Y56.395 E29.37234
G1 F2700 E24.37234
G0 F6000 X107.505 Y65.37
G0 X107.97 Y65.37
G1 F2700 E29.37234
G1 F1200 X110.531 Y65.37 E29.45752
G1 X110.531 Y78.184 E29.88372
G1 X110.521 Y78.364 E29.88971
G1 X110.517 Y78.708 E29.90116
G1 X110.529 Y78.998 E29.91081
G1 X110.549 Y79.278 E29.92015
G1 X110.599 Y79.749 E29.9359
G1 X110.697 Y80.291 E29.95422
G1 X110.851 Y80.763 E29.97073
G1 X110.997 Y81.127 E29.98378
G1 X111.105 Y81.369 E29.99259
G1 X111.216 Y81.598 E30.00106
G1 X111.316 Y81.791 E30.00829
G1 X111.496 Y82.114 E30.02058
G1 X111.929 Y82.736 E30.04579
G1 X112.168 Y83.015 E30.05801
G1 X112.532 Y83.385 E30.07527
G1 X112.736 Y83.566 E30.08434
G1 X112.926 Y83.724 E30.09256
G1 X113.227 Y83.958 E30.10524
G1 X113.751 Y84.3 E30.12606
G1 X114.043 Y84.458 E30.1371
G1 X114.383 Y84.621 E30.14964
G1 X114.734 Y84.768 E30.1623
G1 X115.457 Y84.989 E30.18744
G1 X115.812 Y85.065 E30.19952
G1 X116.405 Y85.15 E30.21944
G1 X116.836 Y85.177 E30.2338
